!!!COM: Martinů, Bohuslav (Jan)
!!!OTL: [T510_Mau-w67p32m1-9]
**kern	**kern	**dynam
*grp:A	*grp:B	*
*part1	*part1	*part1
*staff2	*staff1	*
*I"Piano	*	*
*I'Pno.	*	*
*clefF4	*clefG2	*
*k[]	*k[]	*
*C:	*C:	*
*M6/8	*M6/8	*
=1	=1	=1
!	!LO:TX:t=Allegretto poco moderato [quarter]=72 (66)	!
(4.BBB-X	(4B-X 4d 4b-X	p
.	[8c [8e-X [8cc	.
4BB-X	8c] 8e-] 8cc]	.
.	4d 4f)	.
[8B-X	.	.
=2	=2	=2
*	*^	*
8B-])	(>4c 4e-X 4b-X	4ryy	.
(4BBB-X	.	.	.
.	[8b-	8e- 8g	.
4BB-X	4b-])	4d 4f	.
*	*v	*v	*
[8B-y	(>[8c [8e- [8b-	.
=3	=3	=3
8B-])	8cL] 8e-] 8b-]	.
(<4BBB-X\	8B-X 8d	.
.	[>8A<J [8f	<
4BB-X	8A<] 8f]	.
.	4G<~> 4e-X)	.
[8B-X	.	.
=4	=4	=4
8B-])	(>8F< 8d	.
8rBB	4A< 4c<)	[
([8BBB-X	.	.
8BBB-]	4G<~ 4B-X<	.
4BB-X	.	.
.	[8F< [8d	.
=5	=5	=5
4.B-X)	4.F<_ 4.d_	.
(<4BBB-X	8F<] 8d]	.
.	(4B-X 4d [4b-X	mp
[<8BB-X\	.	.
!!linebreak:original
=6	=6	=6
8BB-X]	4c 4e-X 4b-X])	.
[4B-X	.	.
.	(8d 8f	.
8B-])	4g 4b-y 4dd	<
(4EE-X	.	.
.	[8f [8a [8dd	.
=7	=7	=7
4.E-X)	8fL] 8a] 8dd]	.
.	8e-X 8g'>)	.
.	([8gJ [8b-X [8dd	[
(4CC	8g] 8b-] 8dd]	.
.	4f 4a 4dd)	.
[8C	.	.
=8	=8	=8
8C]	(4f 4a 4cc	.
4BB-X	.	.
.	[8e-X [8g [8cc	.
4B-X)	8e-L] 8g] 8cc]	.
.	8d 8f)	<
([8AAA-X [8AA-X	([8gJ [8b-X	/
=9	=9	=9
8AAA-] 8AA-]	8g] 8b-]	[
4AA-X 4A-X	4f 4a-X	.
4BB-X~ 4B-X)	8e-X' 8g)	>
.	4d~ 4f	.
[8FF [8F	.	]
=	=	=
*-	*-	*-
!!!system-decoration: [({(s1,s2)})]
!!!RDF**kern: > = above
!!!RDF**kern: < = below
!!!EED: Rafael Laurindo
!!!EED2: Jason Lee
!!!EEV2: 2022/02/08
